packages/bezier-icons/icons/heart.svg

<svg width="24" height="24" viewBox="0 0 24 24" fill="none" xmlns="http://www.w3.org/2000/svg">
<path fill-rule="evenodd" clip-rule="evenodd" d="M7.8949 5.00285C7.3269 5.00285 6.7679 5.11885 6.2789 5.33985C5.8179 5.54785 5.4589 5.77985 5.2089 6.02885C3.6699 7.56785 3.6079 9.95385 5.0609 11.6999C6.9159 13.9289 10.0779 16.8819 12.0039 18.6239C13.9299 16.8809 17.0939 13.9269 18.9459 11.6999C20.3989 9.95385 20.3369 7.56885 18.7979 6.02985C18.5479 5.77985 18.1879 5.54785 17.7289 5.33985C16.1569 4.62885 13.8599 5.00085 12.8879 6.83885C12.8879 6.83885 12.3829 7.78985 12.2189 8.09585C12.1199 8.28185 11.8839 8.28185 11.7839 8.09585C11.5749 7.70685 11.1199 6.83885 11.1199 6.83885C10.4499 5.57285 9.1509 5.00285 7.8949 5.00285ZM12.0029 20.7989C11.6449 20.7989 11.2879 20.6709 11.0029 20.4149C9.0889 18.6939 5.5709 15.4409 3.5239 12.9799C1.3939 10.4199 1.5079 6.90187 3.7949 4.61487C4.2159 4.19387 4.7739 3.82487 5.4549 3.51787C7.7179 2.49387 10.3799 3.04187 12.0039 4.69687C13.6279 3.04287 16.2899 2.49587 18.5529 3.51787C19.2329 3.82487 19.7909 4.19387 20.2119 4.61487C22.4989 6.90187 22.6129 10.4199 20.4829 12.9799C18.4379 15.4379 14.9199 18.6929 13.0039 20.4149C12.7189 20.6709 12.3609 20.7989 12.0029 20.7989Z" fill="#313234"/>
</svg>

<svg xmlns="http://www.w3.org/2000/svg" width="24" height="24" fill="none" viewBox="0 0 24 24"><path fill="#313234" fill-rule="evenodd" d="M7.895 5.003a3.95 3.95 0 0 0-1.616.337q-.693.314-1.07.689c-1.54 1.539-1.601 3.925-.148 5.67 1.855 2.23 5.017 5.183 6.943 6.925 1.926-1.743 5.09-4.697 6.942-6.924 1.453-1.746 1.39-4.131-.148-5.67-.25-.25-.61-.482-1.07-.69-1.571-.711-3.868-.34-4.84 1.499 0 0-.505.95-.67 1.257-.098.186-.334.186-.434 0-.21-.39-.664-1.257-.664-1.257-.67-1.266-1.97-1.836-3.225-1.836m4.108 15.796c-.358 0-.715-.128-1-.384-1.914-1.721-5.432-4.974-7.48-7.435-2.13-2.56-2.015-6.078.272-8.365.42-.421.979-.79 1.66-1.097 2.263-1.024 4.925-.476 6.549 1.179 1.624-1.654 4.286-2.201 6.549-1.18.68.308 1.238.677 1.659 1.098 2.287 2.287 2.4 5.805.27 8.365-2.044 2.458-5.562 5.713-7.478 7.435a1.5 1.5 0 0 1-1.001.384" clip-rule="evenodd"/></svg>
